X:331
T:AULDLNG9- Sir Alex. Don's Strathspey, from the Opera of Rossina
O:england
S:Gow's 1st Collection of Strathspey Reels (1784)
Q:1/4=120
L:1/8
M:C
K:D
B,|D/D3/2 D3/2F/ E3/2D/EF|D/D3/2 D3/2F/A3d|\
D/D3/2 D3/2F/ E3/2D/EF|D3/2B,/B,3/2A,/D3A,|\
D/D3/2 D3/2A/ E3/2D/EF|D/D3/2 D3/2F/A3d|\
D/D3/2 D3/2F/ E3/2D/EF|D/B,3/2B,3/2A,/D3||\
B|A/F3/2F3/2D/ FEEF|A/F3/2F3/2D/ F3B|\
A/F3/2F3/2D/ E3/2D/EF|D/B,3/2B,3/2A,D3B|\
A/F3/2F3/2D/ FEEF|B3(c/d/)|(B/A/G/F/) (G/F/E/D/) E3/2D/EF|\
D/B,3/2B,3/2A,A,D3||]


